(Created with emc2b post processor 2021/09/17 22:50)
G21
(G-code generated with BlenderCAM and NC library)
G17 G90
(Tool change - D = 6.0 mm  type VCARVE flutes 2)
T1 M06
S12000 M03
G00 Z10.0

G00 X0 Y0 Z10
X8.614 Y6.454
G01 Z-1.085 F600
X9.519 Y5.636 F2000
X10.565 Y4.937
X11.755 Y4.368
X13.09 Y3.943
X14.575 Y3.677
X16.207 Y3.584
X17.583 Y3.674
X18.878 Y3.932
X20.087 Y4.347
X21.202 Y4.905
X22.216 Y5.595
X23.121 Y6.404
X23.91 Y7.32
X24.574 Y8.331
X25.105 Y9.424
X25.494 Y10.587
X25.734 Y11.808
X25.816 Y13.076
X25.732 Y14.43
X25.485 Y15.717
X25.087 Y16.928
X24.545 Y18.053
X23.869 Y19.082
X23.069 Y20.007
X22.153 Y20.816
X21.13 Y21.502
X20.008 Y22.053
X18.796 Y22.46
X17.501 Y22.712
X16.132 Y22.798
X14.329 Y22.68
X12.741 Y22.345
X11.356 Y21.823
X10.159 Y21.143
X9.138 Y20.331
X8.281 Y19.411
X7.579 Y18.41
X7.023 Y17.355
X6.605 Y16.272
X6.318 Y15.191
X6.152 Y14.141
X6.099 Y13.153
X6.169 Y11.885
X6.38 Y10.66
X6.731 Y9.492
X7.22 Y8.393
X7.848 Y7.377
X8.614 Y6.454
G00 Z10
X5.534 Y3.181
G01 Z-1.085 F600
X4.493 Y4.284 F2000
X4.484 Y4.294
X4.476 Y4.304
X4.467 Y4.314
X4.459 Y4.324
X3.555 Y5.539
X3.547 Y5.549
X3.54 Y5.56
X3.533 Y5.571
X3.526 Y5.583
X2.766 Y6.898
X2.759 Y6.91
X2.753 Y6.921
X2.748 Y6.933
X2.742 Y6.945
X2.136 Y8.351
X2.131 Y8.364
X2.126 Y8.376
X2.122 Y8.388
X2.118 Y8.401
X1.674 Y9.888
X1.671 Y9.9
X1.667 Y9.913
X1.665 Y9.926
X1.662 Y9.939
X1.389 Y11.496
X1.387 Y11.509
X1.386 Y11.522
X1.384 Y11.535
X1.383 Y11.548
X1.291 Y13.166
X1.29 Y13.179
X1.29 Y13.193
X1.29 Y13.206
X1.291 Y13.22
X1.414 Y15.161
X1.414 Y15.17
X1.415 Y15.18
X1.417 Y15.19
X1.418 Y15.2
X1.419 Y15.21
X1.421 Y15.219
X1.782 Y17.049
X1.784 Y17.059
X1.787 Y17.069
X1.789 Y17.079
X1.792 Y17.089
X1.795 Y17.098
X1.798 Y17.108
X2.385 Y18.816
X2.388 Y18.825
X2.392 Y18.835
X2.396 Y18.845
X2.4 Y18.855
X2.405 Y18.864
X2.409 Y18.873
X3.21 Y20.448
X3.215 Y20.457
X3.22 Y20.467
X3.225 Y20.476
X3.231 Y20.485
X3.237 Y20.494
X3.243 Y20.502
X4.245 Y21.933
X4.252 Y21.942
X4.258 Y21.95
X4.265 Y21.958
X4.271 Y21.967
X4.278 Y21.974
X4.285 Y21.982
X5.478 Y23.258
X5.485 Y23.265
X5.493 Y23.273
X5.5 Y23.28
X5.508 Y23.287
X5.516 Y23.294
X5.524 Y23.3
X6.895 Y24.41
X6.903 Y24.416
X6.911 Y24.422
X6.919 Y24.428
X6.927 Y24.434
X6.936 Y24.44
X6.945 Y24.445
X8.482 Y25.377
X8.49 Y25.382
X8.499 Y25.387
X8.507 Y25.392
X8.516 Y25.396
X8.525 Y25.401
X8.534 Y25.405
X10.225 Y26.149
X10.234 Y26.153
X10.243 Y26.156
X10.251 Y26.16
X10.26 Y26.163
X10.269 Y26.166
X10.278 Y26.169
X12.112 Y26.714
X12.125 Y26.718
X12.138 Y26.721
X12.151 Y26.724
X12.164 Y26.726
X14.128 Y27.062
X14.141 Y27.064
X14.154 Y27.065
X14.167 Y27.066
X14.18 Y27.067
X16.262 Y27.182
X16.275 Y27.182
X16.288 Y27.182
X16.301 Y27.182
X16.314 Y27.181
X18.246 Y27.061
X18.255 Y27.061
X18.264 Y27.06
X18.274 Y27.059
X18.283 Y27.057
X18.293 Y27.056
X18.302 Y27.054
X20.14 Y26.703
X20.149 Y26.701
X20.159 Y26.699
X20.168 Y26.697
X20.168 Y26.696
X20.178 Y26.694
X20.187 Y26.691
X20.196 Y26.688
X21.926 Y26.12
X21.936 Y26.117
X21.945 Y26.114
X21.954 Y26.11
X21.963 Y26.106
X21.972 Y26.102
X21.981 Y26.098
X23.589 Y25.327
X23.598 Y25.323
X23.607 Y25.318
X23.616 Y25.313
X23.624 Y25.308
X23.633 Y25.303
X23.641 Y25.298
X25.114 Y24.337
X25.122 Y24.332
X25.13 Y24.326
X25.138 Y24.32
X25.146 Y24.314
X25.153 Y24.308
X25.161 Y24.302
X26.484 Y23.166
X26.491 Y23.16
X26.498 Y23.153
X26.506 Y23.146
X26.513 Y23.139
X26.519 Y23.132
X26.526 Y23.124
X27.684 Y21.828
X27.691 Y21.82
X27.697 Y21.812
X27.703 Y21.805
X27.704 Y21.805
X27.71 Y21.797
X27.715 Y21.789
X27.721 Y21.78
X28.701 Y20.336
X28.706 Y20.328
X28.712 Y20.32
X28.717 Y20.311
X28.722 Y20.302
X28.726 Y20.293
X28.731 Y20.284
X29.518 Y18.707
X29.522 Y18.698
X29.526 Y18.689
X29.53 Y18.68
X29.534 Y18.67
X29.538 Y18.661
X29.541 Y18.652
X30.12 Y16.955
X30.124 Y16.946
X30.126 Y16.936
X30.129 Y16.926
X30.132 Y16.917
X30.134 Y16.907
X30.136 Y16.897
X30.494 Y15.095
X30.496 Y15.086
X30.498 Y15.076
X30.499 Y15.066
X30.5 Y15.056
X30.501 Y15.046
X30.502 Y15.037
X30.624 Y13.143
X30.625 Y13.134
X30.625 Y13.125
X30.625 Y13.115
X30.625 Y13.106
X30.625 Y13.097
X30.625 Y13.087
X30.53 Y11.512
X30.529 Y11.499
X30.528 Y11.485
X30.526 Y11.472
X30.524 Y11.459
X30.248 Y9.932
X30.245 Y9.919
X30.242 Y9.906
X30.239 Y9.893
X30.235 Y9.88
X29.787 Y8.414
X29.783 Y8.402
X29.778 Y8.39
X29.773 Y8.377
X29.768 Y8.365
X29.157 Y6.971
X29.152 Y6.96
X29.146 Y6.948
X29.14 Y6.937
X29.134 Y6.925
X28.371 Y5.615
X28.364 Y5.604
X28.357 Y5.594
X28.357 Y5.593
X28.35 Y5.583
X28.342 Y5.573
X27.436 Y4.358
X27.428 Y4.348
X27.42 Y4.338
X27.412 Y4.328
X27.404 Y4.319
X26.364 Y3.212
X26.356 Y3.202
X26.347 Y3.194
X26.346 Y3.194
X26.337 Y3.185
X26.328 Y3.177
X25.165 Y2.188
X25.155 Y2.18
X25.145 Y2.172
X25.135 Y2.165
X25.125 Y2.157
X23.849 Y1.299
X23.838 Y1.292
X23.827 Y1.286
X23.816 Y1.279
X23.805 Y1.273
X22.426 Y0.558
X22.414 Y0.552
X22.403 Y0.546
X22.402 Y0.546
X22.391 Y0.541
X22.379 Y0.537
X20.906 Y-0.024
X20.893 Y-0.029
X20.881 Y-0.033
X20.869 Y-0.037
X20.856 Y-0.04
X20.555 Y-0.116
X21.509 Y-0.49
X22.47 Y-0.838
X23.363 Y-1.129
X24.197 Y-1.362
X24.976 Y-1.54
X25.709 Y-1.662
X26.401 Y-1.729
X27.061 Y-1.742
X27.697 Y-1.701
X28.317 Y-1.608
X28.948 Y-1.457
X28.959 Y-1.455
X28.969 Y-1.452
X28.98 Y-1.45
X28.991 Y-1.449
X29.002 Y-1.447
X29.013 Y-1.446
X29.024 Y-1.446
X29.034 Y-1.445
X29.045 Y-1.445
X29.056 Y-1.445
X29.067 Y-1.445
X29.078 Y-1.445
X29.089 Y-1.446
X29.1 Y-1.447
X29.111 Y-1.448
X29.121 Y-1.45
X29.132 Y-1.452
X29.143 Y-1.454
X29.154 Y-1.456
X29.164 Y-1.459
X29.175 Y-1.462
X29.176 Y-1.462
X29.186 Y-1.465
X29.197 Y-1.468
X29.207 Y-1.472
X29.217 Y-1.476
X29.227 Y-1.48
X29.237 Y-1.484
X29.247 Y-1.489
X29.257 Y-1.494
X29.267 Y-1.499
X29.276 Y-1.504
X29.286 Y-1.509
X29.295 Y-1.515
X29.304 Y-1.521
X29.313 Y-1.527
X29.322 Y-1.534
X29.331 Y-1.54
X29.339 Y-1.547
X29.347 Y-1.554
X29.356 Y-1.561
X29.364 Y-1.569
X29.371 Y-1.577
X29.488 Y-1.693
X29.495 Y-1.701
X29.503 Y-1.709
X29.51 Y-1.717
X29.517 Y-1.725
X29.524 Y-1.734
X29.531 Y-1.743
X29.537 Y-1.752
X29.544 Y-1.761
X29.55 Y-1.77
X29.555 Y-1.78
X29.561 Y-1.789
X29.566 Y-1.799
X29.571 Y-1.809
X29.576 Y-1.819
X29.581 Y-1.829
X29.585 Y-1.839
X29.589 Y-1.849
X29.593 Y-1.86
X29.597 Y-1.87
X29.6 Y-1.881
X29.603 Y-1.891
X29.606 Y-1.902
X29.608 Y-1.913
X29.611 Y-1.924
X29.613 Y-1.935
X29.614 Y-1.946
X29.616 Y-1.957
X29.617 Y-1.968
X29.618 Y-1.979
X29.619 Y-1.99
X29.619 Y-2.001
X29.619 Y-2.012
X29.619 Y-2.013
X29.619 Y-2.024
X29.619 Y-2.035
X29.618 Y-2.046
X29.617 Y-2.057
X29.616 Y-2.068
X29.614 Y-2.079
X29.612 Y-2.09
X29.61 Y-2.101
X29.608 Y-2.112
X29.605 Y-2.123
X29.602 Y-2.133
X29.599 Y-2.144
X29.596 Y-2.155
X29.592 Y-2.165
X29.588 Y-2.175
X29.584 Y-2.186
X29.58 Y-2.196
X29.575 Y-2.206
X29.57 Y-2.216
X29.565 Y-2.226
X29.56 Y-2.235
X29.554 Y-2.245
X29.548 Y-2.254
X29.542 Y-2.264
X29.536 Y-2.273
X29.529 Y-2.282
X29.523 Y-2.29
X29.516 Y-2.299
X29.508 Y-2.307
X29.501 Y-2.316
X29.493 Y-2.324
X29.486 Y-2.332
X26.081 Y-5.697
X26.073 Y-5.705
X26.065 Y-5.712
X26.057 Y-5.72
X26.048 Y-5.727
X26.04 Y-5.734
X26.031 Y-5.74
X26.022 Y-5.747
X26.013 Y-5.753
X26.003 Y-5.759
X25.994 Y-5.765
X25.984 Y-5.77
X25.974 Y-5.776
X25.965 Y-5.781
X25.955 Y-5.785
X25.944 Y-5.79
X25.934 Y-5.794
X25.924 Y-5.798
X25.914 Y-5.802
X25.913 Y-5.802
X25.902 Y-5.806
X25.892 Y-5.809
X25.881 Y-5.812
X25.87 Y-5.815
X25.859 Y-5.817
X25.849 Y-5.819
X25.838 Y-5.821
X25.827 Y-5.823
X25.816 Y-5.824
X25.805 Y-5.826
X25.794 Y-5.826
X25.783 Y-5.827
X25.772 Y-5.827
X25.761 Y-5.827
X25.749 Y-5.827
X25.738 Y-5.827
X25.727 Y-5.826
X25.716 Y-5.825
X24.459 Y-5.689
X24.445 Y-5.688
X24.431 Y-5.686
X23.211 Y-5.476
X23.197 Y-5.474
X23.184 Y-5.471
X21.999 Y-5.193
X21.986 Y-5.19
X21.974 Y-5.186
X20.823 Y-4.844
X20.812 Y-4.841
X20.8 Y-4.837
X19.682 Y-4.437
X19.671 Y-4.432
X19.66 Y-4.428
X18.574 Y-3.974
X18.564 Y-3.97
X18.554 Y-3.966
X17.498 Y-3.463
X17.489 Y-3.459
X17.48 Y-3.455
X16.452 Y-2.909
X16.444 Y-2.905
X16.436 Y-2.901
X15.435 Y-2.317
X15.428 Y-2.313
X15.421 Y-2.309
X14.445 Y-1.692
X14.44 Y-1.688
X14.434 Y-1.684
X13.482 Y-1.04
X13.476 Y-1.036
X13.471 Y-1.033
X12.612 Y-0.416
X11.105 Y-0.043
X11.093 Y-0.04
X11.081 Y-0.036
X11.069 Y-0.032
X11.057 Y-0.028
X9.558 Y0.527
X9.546 Y0.532
X9.534 Y0.537
X9.523 Y0.542
X9.511 Y0.548
X8.114 Y1.256
X8.103 Y1.262
X8.091 Y1.269
X8.08 Y1.275
X8.069 Y1.282
X6.782 Y2.132
X6.771 Y2.14
X6.761 Y2.147
X6.751 Y2.155
X6.741 Y2.163
X5.572 Y3.145
X5.562 Y3.154
X5.553 Y3.163
X5.543 Y3.172
X5.534 Y3.181
G00 Z10
X31.422 Y14.103
G01 Z-1.085 F600
X31.418 Y14.113 F2000
X31.414 Y14.123
X31.41 Y14.134
X31.407 Y14.144
X31.404 Y14.155
X31.401 Y14.165
X31.399 Y14.176
X31.396 Y14.187
X31.394 Y14.198
X31.393 Y14.209
X31.391 Y14.22
X31.39 Y14.231
X31.389 Y14.242
X31.388 Y14.253
X31.388 Y14.264
X31.388 Y14.275
Y14.662
X31.388 Y14.673
X31.388 Y14.684
X31.389 Y14.695
X31.39 Y14.706
X31.391 Y14.717
X31.393 Y14.729
X31.395 Y14.74
X31.397 Y14.751
X31.399 Y14.762
X31.402 Y14.772
X31.405 Y14.783
X31.408 Y14.794
X31.411 Y14.805
X31.415 Y14.815
X31.419 Y14.826
X31.423 Y14.836
X31.423 Y14.837
X31.428 Y14.847
X31.433 Y14.857
X31.438 Y14.867
X31.443 Y14.877
X31.448 Y14.887
X31.454 Y14.897
X31.46 Y14.906
X31.466 Y14.915
X31.473 Y14.925
X31.479 Y14.934
X31.486 Y14.942
X31.493 Y14.951
X31.5 Y14.96
X31.508 Y14.968
X31.516 Y14.976
X31.524 Y14.984
X37.984 Y21.29
X37.992 Y21.297
X38 Y21.305
X38.009 Y21.312
X38.017 Y21.319
X38.026 Y21.326
X38.035 Y21.332
X38.043 Y21.339
X38.053 Y21.345
X38.062 Y21.351
X38.071 Y21.356
X38.081 Y21.362
X38.09 Y21.367
X38.1 Y21.372
X38.11 Y21.377
X38.12 Y21.381
X38.13 Y21.385
X38.141 Y21.389
X38.151 Y21.393
X38.161 Y21.396
X38.172 Y21.4
X38.182 Y21.403
X38.193 Y21.405
X38.204 Y21.408
X38.214 Y21.41
X38.225 Y21.412
X38.236 Y21.413
X38.247 Y21.415
X38.258 Y21.416
X38.269 Y21.417
X38.28 Y21.417
X38.291 Y21.418
X38.302 Y21.418
X38.313 Y21.417
X38.324 Y21.417
X38.335 Y21.416
X38.346 Y21.415
X38.357 Y21.414
X38.367 Y21.412
X38.378 Y21.411
X38.389 Y21.408
X38.4 Y21.406
X38.41 Y21.403
X38.421 Y21.401
X38.432 Y21.397
X38.442 Y21.394
X38.452 Y21.39
X38.463 Y21.387
X38.473 Y21.382
X38.474 Y21.382
X38.484 Y21.377
X38.494 Y21.373
X38.504 Y21.368
X38.514 Y21.363
X38.524 Y21.357
X38.533 Y21.352
X38.542 Y21.346
X38.552 Y21.34
X38.561 Y21.334
X38.569 Y21.327
X38.578 Y21.321
X38.587 Y21.314
X38.595 Y21.307
X38.603 Y21.299
X38.611 Y21.292
X38.619 Y21.284
X38.627 Y21.276
X38.634 Y21.268
X38.641 Y21.26
X38.648 Y21.251
X38.655 Y21.243
X38.662 Y21.234
X38.668 Y21.225
X38.674 Y21.216
X38.68 Y21.207
X38.686 Y21.197
X38.692 Y21.188
X38.697 Y21.178
X38.702 Y21.169
X38.707 Y21.159
X38.711 Y21.149
X38.716 Y21.139
X38.72 Y21.128
X38.723 Y21.118
X38.727 Y21.108
X38.73 Y21.097
X38.733 Y21.087
X38.736 Y21.076
X38.739 Y21.065
X38.741 Y21.055
X38.743 Y21.044
X38.745 Y21.033
X38.746 Y21.022
X38.747 Y21.011
X38.748 Y21
X38.749 Y20.989
X38.749 Y20.978
X38.749 Y20.967
Y17.82
X43.792
X43.803 Y17.82
X43.814 Y17.82
X43.825 Y17.819
X43.836 Y17.818
X43.847 Y17.817
X43.858 Y17.815
X43.869 Y17.814
X43.88 Y17.812
X43.891 Y17.809
X43.902 Y17.807
X43.912 Y17.804
X43.923 Y17.801
X43.933 Y17.797
X43.944 Y17.794
X43.954 Y17.79
X43.964 Y17.786
X43.975 Y17.782
X43.985 Y17.777
X43.994 Y17.772
X44.004 Y17.767
X44.014 Y17.762
X44.023 Y17.756
X44.033 Y17.75
X44.042 Y17.744
X44.051 Y17.738
X44.06 Y17.732
X44.069 Y17.725
X44.078 Y17.718
X44.086 Y17.711
X44.094 Y17.704
X44.102 Y17.696
X44.11 Y17.689
X44.111 Y17.688
X44.119 Y17.68
X44.126 Y17.672
X44.134 Y17.663
X44.141 Y17.655
X44.148 Y17.646
X44.154 Y17.637
X44.161 Y17.628
X44.167 Y17.619
X44.173 Y17.61
X44.179 Y17.601
X44.184 Y17.591
X44.19 Y17.582
X44.195 Y17.572
X44.2 Y17.562
X44.204 Y17.552
X44.209 Y17.542
X44.213 Y17.531
X44.217 Y17.521
X44.22 Y17.511
X44.224 Y17.5
X44.227 Y17.49
X44.229 Y17.479
X44.232 Y17.468
X44.234 Y17.457
X44.236 Y17.446
X44.238 Y17.436
X44.239 Y17.425
X44.241 Y17.414
X44.242 Y17.403
X44.242 Y17.392
X44.243 Y17.381
X44.243 Y17.37
Y14.275
X44.243 Y14.264
X44.242 Y14.253
X44.242 Y14.242
X44.241 Y14.231
X44.239 Y14.22
X44.238 Y14.209
X44.236 Y14.198
X44.234 Y14.187
X44.232 Y14.176
X44.229 Y14.165
X44.227 Y14.155
X44.224 Y14.144
X44.22 Y14.134
X44.217 Y14.123
X44.213 Y14.113
X44.209 Y14.103
X44.204 Y14.093
X44.2 Y14.083
X44.195 Y14.073
X44.19 Y14.063
X44.184 Y14.053
X44.179 Y14.044
X44.173 Y14.034
X44.167 Y14.025
X44.161 Y14.016
X44.154 Y14.007
X44.148 Y13.998
X44.141 Y13.99
X44.134 Y13.981
X44.126 Y13.973
X44.119 Y13.965
X44.111 Y13.957
X44.11 Y13.956
X44.102 Y13.948
X44.094 Y13.941
X44.086 Y13.933
X44.078 Y13.926
X44.069 Y13.919
X44.06 Y13.913
X44.051 Y13.906
X44.042 Y13.9
X44.033 Y13.894
X44.023 Y13.888
X44.014 Y13.883
X44.004 Y13.877
X43.994 Y13.872
X43.985 Y13.867
X43.975 Y13.863
X43.964 Y13.858
X43.954 Y13.854
X43.944 Y13.85
X43.933 Y13.847
X43.923 Y13.844
X43.912 Y13.84
X43.902 Y13.838
X43.891 Y13.835
X43.88 Y13.833
X43.869 Y13.831
X43.858 Y13.829
X43.847 Y13.828
X43.836 Y13.826
X43.825 Y13.825
X43.814 Y13.825
X43.803 Y13.824
X43.792 Y13.824
X38.749
Y5.391
X38.776 Y4.952
X38.848 Y4.59
X38.957 Y4.286
X39.096 Y4.031
X39.26 Y3.818
X39.446 Y3.642
X39.65 Y3.499
X39.869 Y3.385
X40.098 Y3.3
X40.33 Y3.241
X40.558 Y3.208
X40.779 Y3.197
X41.06 Y3.205
X41.347 Y3.23
X41.637 Y3.27
X41.931 Y3.328
X42.228 Y3.402
X42.53 Y3.494
X42.836 Y3.602
X43.148 Y3.728
X43.464 Y3.871
X43.786 Y4.032
X44.114 Y4.211
X44.453 Y4.411
X44.463 Y4.416
X44.472 Y4.422
X44.482 Y4.427
X44.492 Y4.431
X44.502 Y4.436
X44.512 Y4.44
X44.523 Y4.444
X44.533 Y4.448
X44.543 Y4.451
X44.554 Y4.455
X44.564 Y4.458
X44.575 Y4.46
X44.586 Y4.463
X44.597 Y4.465
X44.607 Y4.467
X44.618 Y4.469
X44.629 Y4.47
X44.64 Y4.471
X44.651 Y4.472
X44.662 Y4.473
X44.673 Y4.473
X44.684 Y4.473
X44.695 Y4.473
X44.706 Y4.473
X44.717 Y4.472
X44.728 Y4.471
X44.739 Y4.47
X44.75 Y4.468
X44.761 Y4.466
X44.771 Y4.464
X44.782 Y4.462
X44.793 Y4.459
X44.803 Y4.456
X44.814 Y4.453
X44.824 Y4.45
X44.835 Y4.446
X44.845 Y4.442
X44.855 Y4.438
X44.865 Y4.434
X44.875 Y4.429
X44.885 Y4.425
X44.895 Y4.419
X44.905 Y4.414
X44.906 Y4.413
X44.916 Y4.408
X44.925 Y4.402
X44.934 Y4.396
X44.943 Y4.39
X44.952 Y4.383
X44.961 Y4.376
X44.969 Y4.37
X44.978 Y4.362
X44.986 Y4.355
X44.994 Y4.348
X45.002 Y4.34
X45.009 Y4.332
X45.017 Y4.324
X45.024 Y4.316
X45.031 Y4.307
X45.038 Y4.299
X45.045 Y4.29
X45.051 Y4.281
X45.057 Y4.272
X45.063 Y4.263
X45.069 Y4.253
X45.075 Y4.244
X45.08 Y4.234
X45.085 Y4.224
X45.09 Y4.214
X45.094 Y4.204
X45.099 Y4.194
X45.103 Y4.184
X45.107 Y4.174
X45.11 Y4.163
X45.113 Y4.153
X45.116 Y4.142
X45.119 Y4.132
X45.122 Y4.121
X45.124 Y4.11
X45.126 Y4.099
X45.128 Y4.089
X45.129 Y4.078
X45.131 Y4.067
X45.131 Y4.056
X45.132 Y4.045
X45.133 Y4.034
X45.133 Y4.023
Y0.812
X45.133 Y0.801
X45.132 Y0.79
X45.131 Y0.778
X45.13 Y0.767
X45.129 Y0.756
X45.128 Y0.745
X45.126 Y0.734
X45.124 Y0.723
X45.121 Y0.712
X45.119 Y0.701
X45.116 Y0.69
X45.113 Y0.68
X45.109 Y0.669
X45.106 Y0.658
X45.102 Y0.648
X45.097 Y0.638
X45.093 Y0.627
X45.088 Y0.617
X45.083 Y0.607
X45.078 Y0.597
X45.073 Y0.587
X45.067 Y0.578
X45.066 Y0.577
X45.06 Y0.567
X45.054 Y0.558
X45.048 Y0.549
X45.041 Y0.54
X45.034 Y0.531
X45.027 Y0.522
X45.02 Y0.514
X45.012 Y0.506
X45.005 Y0.498
X44.997 Y0.49
X44.989 Y0.482
X44.98 Y0.474
X44.972 Y0.467
X44.963 Y0.46
X44.955 Y0.453
X44.946 Y0.446
X44.936 Y0.44
X44.927 Y0.434
X44.918 Y0.428
X44.908 Y0.422
X44.898 Y0.417
X44.888 Y0.411
X44.576 Y0.25
X44.566 Y0.246
X44.557 Y0.241
X44.221 Y0.088
X44.213 Y0.084
X44.205 Y0.081
X43.852 Y-0.063
X43.844 Y-0.066
X43.836 Y-0.069
X43.471 Y-0.203
X43.463 Y-0.206
X43.456 Y-0.208
X43.082 Y-0.331
X43.075 Y-0.334
X43.068 Y-0.336
X42.691 Y-0.446
X42.684 Y-0.448
X42.677 Y-0.45
X42.301 Y-0.547
X42.294 Y-0.549
X42.286 Y-0.551
X41.917 Y-0.633
X41.909 Y-0.634
X41.901 Y-0.636
X41.543 Y-0.702
X41.534 Y-0.703
X41.525 Y-0.705
X41.183 Y-0.753
X41.177 Y-0.754
X41.173 Y-0.755
X41.172 Y-0.755
X41.167 Y-0.755
X41.162 Y-0.756
X40.841 Y-0.786
X40.828 Y-0.787
X40.815 Y-0.788
X40.52 Y-0.798
X40.51 Y-0.798
X40.5 Y-0.798
X40.49 Y-0.798
X40.48 Y-0.798
X39.581 Y-0.75
X39.568 Y-0.749
X39.555 Y-0.748
X39.542 Y-0.746
X39.529 Y-0.744
X38.708 Y-0.605
X38.698 Y-0.604
X38.689 Y-0.602
X38.68 Y-0.6
X38.67 Y-0.598
X38.661 Y-0.595
X38.652 Y-0.592
X37.908 Y-0.367
X37.898 Y-0.364
X37.888 Y-0.361
X37.879 Y-0.357
X37.869 Y-0.354
X37.86 Y-0.35
X37.85 Y-0.345
X37.184 Y-0.039
X37.174 Y-0.035
X37.164 Y-0.03
X37.155 Y-0.025
X37.145 Y-0.019
X37.136 Y-0.014
X37.127 Y-0.008
X36.538 Y0.373
X36.529 Y0.379
X36.52 Y0.386
X36.511 Y0.393
X36.51 Y0.393
X36.502 Y0.4
X36.493 Y0.407
X36.484 Y0.414
X35.974 Y0.866
X35.966 Y0.874
X35.957 Y0.882
X35.95 Y0.89
X35.949 Y0.89
X35.942 Y0.898
X35.934 Y0.906
X35.927 Y0.915
X35.494 Y1.433
X35.488 Y1.441
X35.481 Y1.45
X35.474 Y1.459
X35.468 Y1.468
X35.462 Y1.477
X35.456 Y1.486
X35.102 Y2.064
X35.097 Y2.073
X35.092 Y2.082
X35.087 Y2.091
X35.082 Y2.1
X35.077 Y2.11
X35.073 Y2.119
X34.798 Y2.752
X34.794 Y2.761
X34.79 Y2.77
X34.787 Y2.779
X34.784 Y2.788
X34.781 Y2.797
X34.778 Y2.807
X34.581 Y3.489
X34.577 Y3.502
X34.574 Y3.515
X34.571 Y3.528
X34.569 Y3.542
X34.451 Y4.268
X34.449 Y4.28
X34.447 Y4.293
X34.446 Y4.305
X34.445 Y4.317
X34.406 Y5.083
X34.405 Y5.094
Y5.095
X34.405 Y5.106
Y13.824
X31.838
X31.827 Y13.824
X31.816 Y13.825
X31.805 Y13.825
X31.794 Y13.826
X31.783 Y13.828
X31.772 Y13.829
X31.761 Y13.831
X31.751 Y13.833
X31.74 Y13.835
X31.729 Y13.838
X31.718 Y13.84
X31.708 Y13.844
X31.697 Y13.847
X31.687 Y13.85
X31.676 Y13.854
X31.666 Y13.858
X31.656 Y13.863
X31.646 Y13.867
X31.636 Y13.872
X31.626 Y13.877
X31.617 Y13.883
X31.607 Y13.888
X31.598 Y13.894
X31.589 Y13.9
X31.579 Y13.906
X31.57 Y13.913
X31.562 Y13.919
X31.553 Y13.926
X31.545 Y13.933
X31.536 Y13.941
X31.528 Y13.948
X31.52 Y13.956
X31.519 Y13.957
X31.512 Y13.965
X31.504 Y13.973
X31.497 Y13.981
X31.49 Y13.99
X31.483 Y13.998
X31.476 Y14.007
X31.47 Y14.016
X31.463 Y14.025
X31.457 Y14.034
X31.452 Y14.044
X31.446 Y14.053
X31.441 Y14.063
X31.436 Y14.073
X31.431 Y14.083
X31.426 Y14.093
X31.422 Y14.103
G00 Z10
X51.671 Y15.267
G01 Z-1.085 F600
X55.504 F2000
X56.156 Y15.297
X56.75 Y15.383
X57.292 Y15.523
X57.781 Y15.714
X58.216 Y15.953
X58.597 Y16.239
X58.923 Y16.571
X59.195 Y16.949
X59.412 Y17.374
X59.572 Y17.85
X59.671 Y18.377
X59.705 Y18.959
X59.685 Y19.398
X59.621 Y19.836
X59.511 Y20.26
X59.351 Y20.664
X59.138 Y21.042
X58.869 Y21.389
X58.538 Y21.701
X58.138 Y21.974
X57.659 Y22.202
X57.092 Y22.376
X56.431 Y22.488
X55.657 Y22.529
X51.671
Y15.267
G00 Z10
Y10.961
G01 Z-1.085 F600
Y0 F2000
X51.67 Y-0.011
X51.67 Y-0.022
X51.669 Y-0.033
X51.668 Y-0.044
X51.667 Y-0.055
X51.666 Y-0.065
X51.664 Y-0.076
X51.662 Y-0.087
X51.66 Y-0.098
X51.657 Y-0.109
X51.654 Y-0.119
X51.651 Y-0.13
X51.648 Y-0.141
X51.644 Y-0.151
X51.641 Y-0.161
X51.636 Y-0.172
X51.632 Y-0.182
X51.627 Y-0.192
X51.623 Y-0.202
X51.618 Y-0.211
X51.612 Y-0.221
X51.607 Y-0.231
X51.601 Y-0.24
X51.595 Y-0.249
X51.589 Y-0.258
X51.582 Y-0.267
X51.575 Y-0.276
X51.569 Y-0.285
X51.561 Y-0.293
X51.554 Y-0.301
X51.547 Y-0.309
X51.539 Y-0.317
X51.538 Y-0.318
X51.53 Y-0.326
X51.522 Y-0.334
X51.514 Y-0.341
X51.505 Y-0.348
X51.497 Y-0.355
X51.488 Y-0.362
X51.479 Y-0.368
X51.47 Y-0.374
X51.461 Y-0.38
X51.451 Y-0.386
X51.442 Y-0.392
X51.432 Y-0.397
X51.422 Y-0.402
X51.412 Y-0.407
X51.402 Y-0.411
X51.392 Y-0.416
X51.382 Y-0.42
X51.372 Y-0.424
X51.361 Y-0.427
X51.351 Y-0.431
X51.34 Y-0.434
X51.329 Y-0.437
X51.319 Y-0.439
X51.308 Y-0.441
X51.297 Y-0.443
X51.286 Y-0.445
X51.275 Y-0.447
X51.264 Y-0.448
X51.253 Y-0.449
X51.242 Y-0.45
X51.231 Y-0.45
X51.22 Y-0.45
X47.429
X47.418 Y-0.45
X47.407 Y-0.45
X47.396 Y-0.449
X47.385 Y-0.448
X47.374 Y-0.447
X47.363 Y-0.445
X47.352 Y-0.443
X47.341 Y-0.441
X47.33 Y-0.439
X47.32 Y-0.437
X47.309 Y-0.434
X47.298 Y-0.431
X47.288 Y-0.427
X47.277 Y-0.424
X47.267 Y-0.42
X47.257 Y-0.416
X47.247 Y-0.411
X47.237 Y-0.407
X47.227 Y-0.402
X47.217 Y-0.397
X47.207 Y-0.392
X47.198 Y-0.386
X47.188 Y-0.38
X47.179 Y-0.374
X47.17 Y-0.368
X47.161 Y-0.362
X47.152 Y-0.355
X47.144 Y-0.348
X47.135 Y-0.341
X47.127 Y-0.334
X47.119 Y-0.326
X47.111 Y-0.318
X47.11 Y-0.317
X47.102 Y-0.309
X47.095 Y-0.301
X47.087 Y-0.293
X47.08 Y-0.285
X47.073 Y-0.276
X47.067 Y-0.267
X47.06 Y-0.258
X47.054 Y-0.249
X47.048 Y-0.24
X47.042 Y-0.231
X47.037 Y-0.221
X47.031 Y-0.211
X47.026 Y-0.202
X47.021 Y-0.192
X47.017 Y-0.182
X47.013 Y-0.172
X47.008 Y-0.161
X47.005 Y-0.151
X47.001 Y-0.141
X46.998 Y-0.13
X46.995 Y-0.119
X46.992 Y-0.109
X46.989 Y-0.098
X46.987 Y-0.087
X46.985 Y-0.076
X46.983 Y-0.065
X46.982 Y-0.055
X46.98 Y-0.044
X46.98 Y-0.033
X46.979 Y-0.022
X46.978 Y-0.011
X46.978 Y0
Y26.384
X46.978 Y26.395
X46.979 Y26.406
X46.98 Y26.417
X46.98 Y26.428
X46.982 Y26.439
X46.983 Y26.449
X46.985 Y26.46
X46.987 Y26.471
X46.989 Y26.482
X46.992 Y26.493
X46.995 Y26.503
X46.998 Y26.514
X47.001 Y26.525
X47.005 Y26.535
X47.008 Y26.545
X47.013 Y26.556
X47.017 Y26.566
X47.021 Y26.576
X47.026 Y26.586
X47.031 Y26.595
X47.037 Y26.605
X47.042 Y26.615
X47.048 Y26.624
X47.054 Y26.633
X47.06 Y26.642
X47.067 Y26.651
X47.073 Y26.66
X47.08 Y26.669
X47.087 Y26.677
X47.095 Y26.685
X47.102 Y26.694
X47.11 Y26.701
X47.111 Y26.702
X47.119 Y26.71
X47.127 Y26.718
X47.135 Y26.725
X47.144 Y26.732
X47.152 Y26.739
X47.161 Y26.746
X47.17 Y26.752
X47.179 Y26.758
X47.188 Y26.764
X47.198 Y26.77
X47.207 Y26.776
X47.217 Y26.781
X47.227 Y26.786
X47.237 Y26.791
X47.247 Y26.795
X47.257 Y26.8
X47.267 Y26.804
X47.277 Y26.808
X47.288 Y26.811
X47.298 Y26.815
X47.309 Y26.818
X47.32 Y26.821
X47.33 Y26.823
X47.341 Y26.825
X47.352 Y26.827
X47.363 Y26.829
X47.374 Y26.831
X47.385 Y26.832
X47.396 Y26.833
X47.407 Y26.834
X47.418 Y26.834
X47.429 Y26.834
X55.669
X55.68 Y26.834
X55.692 Y26.833
X57.068 Y26.764
X57.08 Y26.763
X57.092 Y26.762
X57.093 Y26.762
X57.105 Y26.761
X57.117 Y26.759
X58.364 Y26.557
X58.378 Y26.554
X58.391 Y26.552
X58.392 Y26.551
X58.405 Y26.548
X58.418 Y26.545
X59.538 Y26.219
X59.548 Y26.216
X59.557 Y26.213
X59.567 Y26.21
X59.576 Y26.206
X59.586 Y26.202
X59.595 Y26.198
X60.59 Y25.758
X60.599 Y25.754
X60.609 Y25.749
X60.619 Y25.744
X60.628 Y25.739
X60.637 Y25.734
X60.646 Y25.728
X61.518 Y25.183
X61.527 Y25.177
X61.536 Y25.17
X61.545 Y25.164
X61.554 Y25.157
X61.563 Y25.15
X61.572 Y25.143
X62.321 Y24.501
X62.33 Y24.494
X62.338 Y24.486
X62.346 Y24.478
X62.354 Y24.47
X62.362 Y24.462
X62.369 Y24.454
X62.998 Y23.725
X63.006 Y23.716
X63.012 Y23.708
X63.019 Y23.699
X63.026 Y23.69
X63.032 Y23.681
X63.038 Y23.672
X63.549 Y22.865
X63.555 Y22.856
X63.56 Y22.847
X63.565 Y22.837
X63.57 Y22.828
X63.575 Y22.818
X63.579 Y22.809
X63.974 Y21.934
X63.978 Y21.924
X63.981 Y21.915
X63.985 Y21.906
X63.988 Y21.896
X63.992 Y21.887
X63.994 Y21.877
X64.274 Y20.942
X64.277 Y20.934
X64.279 Y20.925
X64.281 Y20.916
X64.283 Y20.907
X64.285 Y20.898
X64.287 Y20.888
X64.453 Y19.903
X64.455 Y19.89
X64.457 Y19.878
X64.458 Y19.865
X64.459 Y19.852
X64.514 Y18.825
X64.514 Y18.813
X64.514 Y18.8
X64.514 Y18.788
X64.514 Y18.775
X64.459 Y17.82
X68.358
X68.369 Y17.82
X68.38 Y17.82
X68.391 Y17.819
X68.402 Y17.818
X68.413 Y17.817
X68.424 Y17.815
X68.435 Y17.814
X68.445 Y17.812
X68.456 Y17.809
X68.467 Y17.807
X68.478 Y17.804
X68.488 Y17.801
X68.499 Y17.798
X68.509 Y17.794
X68.519 Y17.79
X68.53 Y17.786
X68.54 Y17.782
X68.55 Y17.777
X68.56 Y17.773
X68.569 Y17.767
X68.579 Y17.762
X68.588 Y17.757
X68.598 Y17.751
X68.599 Y17.75
X68.608 Y17.744
X68.617 Y17.738
X68.626 Y17.732
X68.635 Y17.725
X68.643 Y17.718
X68.652 Y17.711
X68.66 Y17.704
X68.668 Y17.697
X68.676 Y17.689
X68.684 Y17.681
X68.691 Y17.673
X68.698 Y17.665
X68.706 Y17.656
X68.712 Y17.648
X68.719 Y17.639
X68.726 Y17.63
X68.732 Y17.621
X68.738 Y17.612
X68.744 Y17.603
X68.749 Y17.593
X68.755 Y17.584
X68.76 Y17.574
X68.765 Y17.564
X73.031 Y8.644
X77.117 Y17.557
X77.122 Y17.567
X77.127 Y17.577
X77.132 Y17.587
X77.138 Y17.597
X77.144 Y17.607
X77.149 Y17.616
X77.156 Y17.625
X77.162 Y17.634
X77.169 Y17.643
X77.176 Y17.652
X77.183 Y17.661
X77.19 Y17.669
X77.198 Y17.677
X77.205 Y17.685
X77.213 Y17.693
X77.221 Y17.701
X77.23 Y17.708
X77.238 Y17.715
X77.247 Y17.723
X77.256 Y17.729
X77.265 Y17.736
X77.274 Y17.742
X77.283 Y17.748
X77.284 Y17.749
X77.293 Y17.755
X77.303 Y17.761
X77.313 Y17.766
X77.323 Y17.771
X77.333 Y17.776
X77.343 Y17.781
X77.353 Y17.785
X77.363 Y17.789
X77.374 Y17.793
X77.384 Y17.797
X77.395 Y17.8
X77.406 Y17.804
X77.416 Y17.806
X77.427 Y17.809
X77.438 Y17.811
X77.449 Y17.813
X77.46 Y17.815
X77.471 Y17.817
X77.482 Y17.818
X77.493 Y17.819
X77.504 Y17.82
X77.516 Y17.82
X77.527 Y17.82
X81.395
X81.406 Y17.82
X81.417 Y17.82
X81.428 Y17.819
X81.439 Y17.818
X81.45 Y17.817
X81.461 Y17.815
X81.472 Y17.814
X81.483 Y17.812
X81.494 Y17.809
X81.504 Y17.807
X81.515 Y17.804
X81.526 Y17.801
X81.536 Y17.798
X81.547 Y17.794
X81.557 Y17.79
X81.567 Y17.786
X81.577 Y17.782
X81.587 Y17.777
X81.597 Y17.772
X81.607 Y17.767
X81.617 Y17.762
X81.626 Y17.756
X81.635 Y17.751
X81.645 Y17.745
X81.654 Y17.738
X81.663 Y17.732
X81.671 Y17.725
X81.68 Y17.718
X81.689 Y17.711
X81.697 Y17.704
X81.705 Y17.697
X81.713 Y17.689
X81.72 Y17.681
X81.728 Y17.673
X81.735 Y17.665
X81.742 Y17.656
X81.749 Y17.648
X81.756 Y17.639
X81.762 Y17.63
X81.769 Y17.621
X81.775 Y17.612
X81.776 Y17.61
X81.781 Y17.601
X81.787 Y17.592
X81.792 Y17.582
X81.797 Y17.572
X81.802 Y17.562
X81.807 Y17.552
X81.811 Y17.542
X81.815 Y17.532
X81.819 Y17.522
X81.823 Y17.511
X81.826 Y17.501
X81.829 Y17.49
X81.832 Y17.48
X81.835 Y17.469
X81.837 Y17.458
X81.839 Y17.447
X81.841 Y17.436
X81.842 Y17.425
X81.844 Y17.415
X81.845 Y17.404
X81.845 Y17.393
X81.846 Y17.382
X81.846 Y17.371
X81.846 Y17.36
X81.845 Y17.349
X81.845 Y17.338
X81.844 Y17.327
X81.843 Y17.316
X81.841 Y17.305
X81.839 Y17.294
X81.837 Y17.283
X81.835 Y17.272
X81.833 Y17.261
X81.83 Y17.251
X81.827 Y17.24
X81.824 Y17.23
X81.82 Y17.219
X81.816 Y17.209
X81.812 Y17.199
X81.808 Y17.189
X81.803 Y17.179
X69.501 Y-9.088
X69.496 Y-9.098
X69.491 Y-9.108
X69.486 Y-9.118
X69.48 Y-9.128
X69.475 Y-9.137
X69.469 Y-9.146
X69.462 Y-9.155
X69.456 Y-9.164
X69.449 Y-9.173
X69.442 Y-9.182
X69.435 Y-9.19
X69.428 Y-9.199
X69.42 Y-9.207
X69.413 Y-9.215
X69.405 Y-9.223
X69.397 Y-9.23
X69.388 Y-9.237
X69.38 Y-9.245
X69.371 Y-9.252
X69.363 Y-9.258
X69.354 Y-9.265
X69.345 Y-9.271
X69.335 Y-9.277
X69.334 Y-9.278
X69.325 Y-9.284
X69.315 Y-9.289
X69.306 Y-9.294
X69.296 Y-9.3
X69.286 Y-9.304
X69.276 Y-9.309
X69.266 Y-9.313
X69.255 Y-9.318
X69.245 Y-9.321
X69.235 Y-9.325
X69.224 Y-9.328
X69.213 Y-9.331
X69.203 Y-9.334
X69.192 Y-9.337
X69.181 Y-9.339
X69.17 Y-9.341
X69.159 Y-9.343
X69.148 Y-9.344
X69.137 Y-9.346
X69.126 Y-9.347
X69.115 Y-9.347
X69.104 Y-9.348
X69.093 Y-9.348
X65.263
X65.252 Y-9.348
X65.241 Y-9.347
X65.23 Y-9.347
X65.219 Y-9.346
X65.208 Y-9.345
X65.197 Y-9.343
X65.186 Y-9.341
X65.176 Y-9.339
X65.165 Y-9.337
X65.154 Y-9.334
X65.143 Y-9.332
X65.133 Y-9.329
X65.122 Y-9.325
X65.112 Y-9.322
X65.102 Y-9.318
X65.091 Y-9.314
X65.081 Y-9.309
X65.071 Y-9.305
X65.061 Y-9.3
X65.052 Y-9.295
X65.042 Y-9.29
X65.032 Y-9.284
X65.023 Y-9.278
X65.014 Y-9.272
X65.005 Y-9.266
X64.996 Y-9.26
X64.987 Y-9.253
X64.978 Y-9.246
X64.97 Y-9.239
X64.962 Y-9.232
X64.954 Y-9.224
X64.946 Y-9.217
X64.938 Y-9.209
X64.93 Y-9.201
X64.923 Y-9.192
X64.916 Y-9.184
X64.909 Y-9.175
X64.902 Y-9.167
X64.896 Y-9.158
X64.89 Y-9.149
X64.884 Y-9.139
X64.883 Y-9.138
X64.877 Y-9.129
X64.872 Y-9.119
X64.866 Y-9.109
X64.861 Y-9.1
X64.856 Y-9.09
X64.852 Y-9.08
X64.847 Y-9.07
X64.843 Y-9.059
X64.839 Y-9.049
X64.836 Y-9.039
X64.832 Y-9.028
X64.829 Y-9.018
X64.826 Y-9.007
X64.824 Y-8.996
X64.822 Y-8.986
X64.82 Y-8.975
X64.818 Y-8.964
X64.816 Y-8.953
X64.815 Y-8.942
X64.814 Y-8.931
X64.813 Y-8.92
X64.813 Y-8.909
X64.813 Y-8.898
X64.813 Y-8.887
X64.813 Y-8.876
X64.814 Y-8.865
X64.815 Y-8.854
X64.816 Y-8.843
X64.817 Y-8.832
X64.819 Y-8.821
X64.821 Y-8.81
X64.823 Y-8.8
X64.826 Y-8.789
X64.829 Y-8.778
X64.832 Y-8.768
X64.835 Y-8.757
X64.839 Y-8.747
X64.842 Y-8.736
X64.846 Y-8.726
X64.851 Y-8.716
X64.855 Y-8.706
X70.682 Y3.709
X64.269 Y16.719
X64.269 Y16.716
X64.266 Y16.707
X64.264 Y16.697
X64.261 Y16.687
X64.258 Y16.678
X63.962 Y15.762
X63.959 Y15.752
X63.955 Y15.741
X63.951 Y15.732
X63.951 Y15.731
X63.947 Y15.722
X63.943 Y15.712
X63.938 Y15.702
X63.52 Y14.848
X63.515 Y14.838
X63.51 Y14.828
X63.504 Y14.818
X63.498 Y14.808
X63.492 Y14.799
X63.486 Y14.79
X62.945 Y14.005
X62.938 Y13.996
X62.931 Y13.987
X62.924 Y13.978
X62.924 Y13.977
X62.917 Y13.969
X62.909 Y13.96
X62.902 Y13.952
X62.235 Y13.245
X62.227 Y13.237
X62.219 Y13.229
X62.211 Y13.221
X62.21 Y13.221
X62.202 Y13.214
X62.193 Y13.206
X62.185 Y13.199
X61.39 Y12.579
X61.382 Y12.572
X61.373 Y12.566
X61.364 Y12.56
X61.364 Y12.559
X61.355 Y12.554
X61.345 Y12.548
X61.336 Y12.542
X60.413 Y12.016
X60.404 Y12.011
X60.395 Y12.007
X60.386 Y12.002
X60.385 Y12.002
X60.376 Y11.998
X60.367 Y11.994
X60.357 Y11.99
X59.303 Y11.566
X59.294 Y11.563
X59.285 Y11.56
X59.277 Y11.557
X59.268 Y11.554
X59.259 Y11.551
X59.25 Y11.549
X58.062 Y11.236
X58.05 Y11.233
X58.038 Y11.23
X58.025 Y11.228
X58.013 Y11.226
X56.69 Y11.032
X56.679 Y11.031
X56.668 Y11.03
X56.657 Y11.029
X56.646 Y11.028
X55.187 Y10.962
X55.176 Y10.962
X55.166 Y10.961
X51.671
G00 Z10
X80.981 Y26.206
G01 Z-1.085 F600
X80.977 Y26.216 F2000
X80.973 Y26.227
X80.969 Y26.237
X80.966 Y26.248
X80.963 Y26.258
X80.96 Y26.269
X80.957 Y26.28
X80.955 Y26.291
X80.952 Y26.301
X80.951 Y26.312
X80.949 Y26.323
X80.948 Y26.334
X80.946 Y26.345
X80.946 Y26.356
X80.945 Y26.368
X80.945 Y26.379
X80.945 Y26.39
X80.945 Y26.401
X80.946 Y26.412
X80.947 Y26.423
X80.948 Y26.434
X80.949 Y26.445
X80.951 Y26.456
X80.953 Y26.467
X80.955 Y26.478
X80.957 Y26.489
X80.96 Y26.499
X80.963 Y26.51
X80.966 Y26.521
X80.97 Y26.531
X80.974 Y26.542
X80.978 Y26.552
X80.982 Y26.562
X80.987 Y26.572
X80.992 Y26.582
X80.997 Y26.592
X81.002 Y26.602
X81.007 Y26.612
X81.013 Y26.621
X81.019 Y26.631
X81.02 Y26.632
X81.026 Y26.641
X81.033 Y26.65
X81.039 Y26.659
X81.046 Y26.668
X81.053 Y26.676
X81.061 Y26.685
X81.068 Y26.693
X81.076 Y26.701
X81.084 Y26.709
X81.092 Y26.716
X81.1 Y26.724
X81.109 Y26.731
X81.117 Y26.738
X81.126 Y26.745
X81.135 Y26.751
X81.144 Y26.757
X81.154 Y26.763
X81.163 Y26.769
X81.173 Y26.775
X81.182 Y26.78
X81.192 Y26.785
X81.202 Y26.79
X81.212 Y26.795
X81.222 Y26.799
X81.233 Y26.804
X81.243 Y26.807
X81.253 Y26.811
X81.264 Y26.814
X81.275 Y26.818
X81.285 Y26.82
X81.296 Y26.823
X81.307 Y26.825
X81.318 Y26.827
X81.329 Y26.829
X81.34 Y26.831
X81.351 Y26.832
X81.362 Y26.833
X81.373 Y26.834
X81.384 Y26.834
X81.395 Y26.834
X85.187
X85.198 Y26.834
X85.208 Y26.834
X85.219 Y26.833
X85.23 Y26.832
X85.241 Y26.831
X85.252 Y26.829
X85.263 Y26.828
X85.273 Y26.826
X85.284 Y26.823
X85.295 Y26.821
X85.305 Y26.818
X85.316 Y26.815
X85.326 Y26.812
X85.337 Y26.808
X85.347 Y26.805
X85.357 Y26.801
X85.367 Y26.796
X85.377 Y26.792
X85.387 Y26.787
X85.397 Y26.782
X85.406 Y26.777
X85.416 Y26.771
X85.425 Y26.766
X85.434 Y26.76
X85.435 Y26.759
X85.444 Y26.753
X85.453 Y26.747
X85.462 Y26.74
X85.47 Y26.733
X85.479 Y26.726
X85.487 Y26.719
X85.495 Y26.712
X85.503 Y26.704
X85.511 Y26.696
X85.518 Y26.689
X85.525 Y26.68
X85.533 Y26.672
X85.539 Y26.664
X85.546 Y26.655
X85.553 Y26.646
X85.559 Y26.637
X85.565 Y26.628
X85.571 Y26.619
X85.576 Y26.61
X85.582 Y26.6
X85.587 Y26.59
X85.592 Y26.581
X85.596 Y26.571
X85.601 Y26.561
X93.116 Y9
X100.595 Y26.56
X100.599 Y26.57
X100.604 Y26.58
X100.609 Y26.59
X100.614 Y26.599
X100.619 Y26.609
X100.625 Y26.618
X100.631 Y26.628
X100.637 Y26.637
X100.643 Y26.646
X100.649 Y26.655
X100.656 Y26.663
X100.663 Y26.672
X100.67 Y26.68
X100.677 Y26.688
X100.685 Y26.696
X100.693 Y26.704
X100.7 Y26.711
X100.709 Y26.719
X100.717 Y26.726
X100.725 Y26.733
X100.734 Y26.74
X100.743 Y26.746
X100.751 Y26.753
X100.76 Y26.759
X100.761 Y26.76
X100.771 Y26.765
X100.78 Y26.771
X100.789 Y26.777
X100.799 Y26.782
X100.809 Y26.787
X100.819 Y26.792
X100.829 Y26.796
X100.839 Y26.8
X100.849 Y26.804
X100.859 Y26.808
X100.869 Y26.812
X100.88 Y26.815
X100.89 Y26.818
X100.901 Y26.821
X100.912 Y26.823
X100.922 Y26.826
X100.933 Y26.828
X100.944 Y26.829
X100.955 Y26.831
X100.966 Y26.832
X100.976 Y26.833
X100.987 Y26.834
X100.998 Y26.834
X101.009 Y26.834
X104.762
X104.773 Y26.834
X104.784 Y26.834
X104.795 Y26.833
X104.806 Y26.832
X104.817 Y26.831
X104.828 Y26.829
X104.839 Y26.827
X104.85 Y26.825
X104.861 Y26.823
X104.871 Y26.821
X104.882 Y26.818
X104.893 Y26.815
X104.903 Y26.811
X104.914 Y26.808
X104.924 Y26.804
X104.934 Y26.8
X104.944 Y26.795
X104.955 Y26.791
X104.964 Y26.786
X104.974 Y26.781
X104.984 Y26.775
X104.993 Y26.77
X105.003 Y26.764
X105.012 Y26.758
X105.021 Y26.752
X105.03 Y26.745
X105.039 Y26.738
X105.048 Y26.732
X105.056 Y26.724
X105.064 Y26.717
X105.072 Y26.71
X105.08 Y26.702
X105.088 Y26.694
X105.096 Y26.686
X105.103 Y26.677
X105.11 Y26.669
X105.117 Y26.66
X105.124 Y26.651
X105.13 Y26.642
X105.136 Y26.633
X105.137 Y26.632
X105.143 Y26.623
X105.149 Y26.613
X105.155 Y26.604
X105.16 Y26.594
X105.165 Y26.584
X105.17 Y26.574
X105.174 Y26.564
X105.179 Y26.554
X105.183 Y26.544
X105.187 Y26.533
X105.19 Y26.523
X105.193 Y26.512
X105.196 Y26.502
X105.199 Y26.491
X105.202 Y26.48
X105.204 Y26.469
X105.206 Y26.458
X105.208 Y26.447
X105.209 Y26.437
X105.21 Y26.426
X105.211 Y26.415
X105.212 Y26.403
X105.212 Y26.392
X105.212 Y26.381
X105.212 Y26.37
X105.212 Y26.359
X105.211 Y26.348
X105.21 Y26.337
X105.209 Y26.326
X105.207 Y26.315
X105.205 Y26.304
X105.203 Y26.293
X105.201 Y26.283
X105.198 Y26.272
X105.195 Y26.261
X105.192 Y26.251
X105.189 Y26.24
X105.185 Y26.23
X105.181 Y26.219
X105.177 Y26.209
X93.997 Y-0.406
X93.993 Y-0.416
X93.988 Y-0.426
X93.983 Y-0.436
X93.978 Y-0.446
X93.973 Y-0.455
X93.967 Y-0.465
X93.961 Y-0.474
X93.955 Y-0.483
X93.949 Y-0.492
X93.943 Y-0.501
X93.936 Y-0.51
X93.929 Y-0.518
X93.922 Y-0.527
X93.915 Y-0.535
X93.907 Y-0.543
X93.899 Y-0.551
X93.891 Y-0.558
X93.883 Y-0.566
X93.875 Y-0.573
X93.867 Y-0.58
X93.858 Y-0.587
X93.849 Y-0.594
X93.84 Y-0.6
X93.834 Y-0.605
X93.832 Y-0.606
X93.831 Y-0.606
X93.829 Y-0.608
X93.823 Y-0.612
X93.814 Y-0.618
X93.804 Y-0.623
X93.794 Y-0.629
X93.785 Y-0.634
X93.775 Y-0.639
X93.765 Y-0.643
X93.754 Y-0.648
X93.744 Y-0.652
X93.734 Y-0.656
X93.723 Y-0.659
X93.713 Y-0.663
X93.702 Y-0.666
X93.691 Y-0.669
X93.681 Y-0.671
X93.67 Y-0.673
X93.659 Y-0.675
X93.648 Y-0.677
X93.637 Y-0.679
X93.626 Y-0.68
X93.615 Y-0.681
X93.604 Y-0.682
X93.593 Y-0.682
X93.582 Y-0.682
X92.808
X92.797 Y-0.682
X92.786 Y-0.682
X92.775 Y-0.681
X92.764 Y-0.68
X92.753 Y-0.679
X92.743 Y-0.677
X92.732 Y-0.676
X92.721 Y-0.674
X92.71 Y-0.671
X92.7 Y-0.669
X92.689 Y-0.666
X92.679 Y-0.663
X92.668 Y-0.66
X92.658 Y-0.656
X92.648 Y-0.653
X92.637 Y-0.649
X92.627 Y-0.644
X92.617 Y-0.64
X92.608 Y-0.635
X92.598 Y-0.63
X92.588 Y-0.625
X92.579 Y-0.62
X92.57 Y-0.614
X92.56 Y-0.608
X92.559 Y-0.607
X92.55 Y-0.601
X92.542 Y-0.595
X92.533 Y-0.588
X92.524 Y-0.582
X92.516 Y-0.575
X92.508 Y-0.567
X92.5 Y-0.56
X92.492 Y-0.552
X92.484 Y-0.545
X92.476 Y-0.537
X92.469 Y-0.529
X92.462 Y-0.52
X92.455 Y-0.512
X92.448 Y-0.503
X92.442 Y-0.495
X92.436 Y-0.486
X92.43 Y-0.477
X92.424 Y-0.467
X92.418 Y-0.458
X92.413 Y-0.448
X92.408 Y-0.439
X92.403 Y-0.429
X92.398 Y-0.419
X92.394 Y-0.409
X80.981 Y26.206
G00 Z10
X106.681 Y16.775
G01 Z-1.085 F600
X107.272 Y18.52 F2000
X107.276 Y18.53
X107.279 Y18.539
X107.283 Y18.549
X107.287 Y18.558
X107.291 Y18.567
X107.296 Y18.576
X108.101 Y20.193
X108.106 Y20.202
X108.111 Y20.211
X108.116 Y20.22
X108.121 Y20.229
X108.127 Y20.237
X108.132 Y20.246
X109.139 Y21.72
X109.145 Y21.728
X109.151 Y21.737
X109.157 Y21.745
X109.163 Y21.753
X109.17 Y21.761
X109.177 Y21.768
X110.371 Y23.088
X110.378 Y23.095
X110.385 Y23.103
X110.392 Y23.11
X110.4 Y23.117
X110.407 Y23.124
X110.415 Y23.13
X111.784 Y24.282
X111.792 Y24.289
X111.8 Y24.295
X111.808 Y24.301
X111.816 Y24.307
X111.824 Y24.313
X111.833 Y24.318
X113.364 Y25.29
X113.372 Y25.295
X113.381 Y25.3
X113.389 Y25.305
X113.398 Y25.309
X113.407 Y25.314
X113.416 Y25.318
X115.096 Y26.096
X115.105 Y26.1
X115.113 Y26.104
X115.122 Y26.107
X115.123 Y26.107
X115.132 Y26.111
X115.141 Y26.114
X115.15 Y26.117
X116.965 Y26.689
X116.974 Y26.691
X116.983 Y26.694
X116.993 Y26.696
X117.002 Y26.698
X117.011 Y26.7
X117.02 Y26.702
X118.959 Y27.055
X118.972 Y27.057
X118.986 Y27.059
X118.999 Y27.06
X119.013 Y27.061
X121.061 Y27.181
X121.07 Y27.182
X121.079 Y27.182
X121.088 Y27.182
X121.097 Y27.182
X121.775 Y27.168
X121.784 Y27.168
X121.793 Y27.168
X122.476 Y27.126
X122.485 Y27.125
X122.494 Y27.124
X123.184 Y27.054
X123.193 Y27.053
X123.202 Y27.051
X123.902 Y26.951
X123.911 Y26.95
X123.919 Y26.949
X124.632 Y26.818
X124.64 Y26.817
X124.649 Y26.815
X125.377 Y26.654
X125.385 Y26.652
X125.392 Y26.651
X126.14 Y26.458
X126.147 Y26.456
X126.154 Y26.454
X126.922 Y26.23
X126.929 Y26.228
X126.935 Y26.226
X127.728 Y25.969
X127.733 Y25.967
X127.739 Y25.965
X128.559 Y25.674
X128.564 Y25.672
X128.569 Y25.67
X129.419 Y25.346
X129.423 Y25.344
X129.428 Y25.342
X130.31 Y24.982
X130.32 Y24.978
X130.33 Y24.974
X130.34 Y24.969
X130.35 Y24.964
X130.36 Y24.958
X130.37 Y24.953
X130.379 Y24.947
X130.388 Y24.941
X130.398 Y24.935
X130.407 Y24.928
X130.415 Y24.922
X130.424 Y24.915
X130.433 Y24.908
X130.441 Y24.9
X130.449 Y24.893
X130.457 Y24.885
X130.465 Y24.877
X130.472 Y24.869
X130.48 Y24.861
X130.487 Y24.853
X130.494 Y24.844
X130.501 Y24.835
X130.507 Y24.826
X130.513 Y24.817
X130.514 Y24.816
X130.52 Y24.807
X130.526 Y24.797
X130.532 Y24.788
X130.537 Y24.778
X130.542 Y24.768
X130.547 Y24.758
X130.552 Y24.748
X130.556 Y24.738
X130.56 Y24.728
X130.564 Y24.717
X130.568 Y24.707
X130.571 Y24.696
X130.574 Y24.686
X130.577 Y24.675
X130.58 Y24.664
X130.582 Y24.653
X130.584 Y24.642
X130.586 Y24.632
X130.587 Y24.621
X130.588 Y24.61
X130.589 Y24.598
X130.59 Y24.587
X130.59 Y24.576
X130.591 Y24.565
Y20.503
X130.59 Y20.492
X130.59 Y20.481
X130.589 Y20.47
X130.588 Y20.459
X130.587 Y20.448
X130.586 Y20.437
X130.584 Y20.426
X130.582 Y20.415
X130.579 Y20.404
X130.577 Y20.393
X130.574 Y20.382
X130.571 Y20.371
X130.567 Y20.361
X130.564 Y20.35
X130.56 Y20.34
X130.556 Y20.329
X130.551 Y20.319
X130.547 Y20.309
X130.542 Y20.299
X130.536 Y20.289
X130.531 Y20.279
X130.525 Y20.27
X130.519 Y20.26
X130.513 Y20.251
X130.507 Y20.242
X130.5 Y20.233
X130.493 Y20.224
X130.486 Y20.215
X130.479 Y20.207
X130.472 Y20.199
X130.464 Y20.191
X130.456 Y20.183
X130.448 Y20.175
X130.44 Y20.167
X130.432 Y20.16
X130.423 Y20.153
X130.414 Y20.146
X130.405 Y20.139
X130.396 Y20.133
X130.387 Y20.127
X130.377 Y20.121
X130.368 Y20.115
X130.366 Y20.114
X130.357 Y20.109
X130.347 Y20.103
X130.337 Y20.098
X130.327 Y20.094
X130.317 Y20.089
X130.306 Y20.085
X130.296 Y20.081
X130.285 Y20.077
X130.275 Y20.074
X130.264 Y20.07
X130.253 Y20.067
X130.243 Y20.065
X130.232 Y20.062
X130.221 Y20.06
X130.21 Y20.058
X130.199 Y20.057
X130.188 Y20.055
X130.177 Y20.054
X130.165 Y20.054
X130.154 Y20.053
X130.143 Y20.053
X130.132 Y20.053
X130.121 Y20.053
X130.11 Y20.054
X130.099 Y20.055
X130.088 Y20.056
X130.076 Y20.057
X130.065 Y20.059
X130.054 Y20.061
X130.044 Y20.063
X130.033 Y20.066
X130.022 Y20.068
X130.011 Y20.072
X130.001 Y20.075
X129.99 Y20.078
X129.979 Y20.082
X129.969 Y20.086
X129.959 Y20.091
X129.949 Y20.095
X129.939 Y20.1
X129.929 Y20.105
X129.919 Y20.111
X129.122 Y20.559
X128.35 Y20.961
X127.593 Y21.321
X126.849 Y21.64
X126.116 Y21.918
X125.391 Y22.156
X124.671 Y22.356
X123.954 Y22.517
X123.236 Y22.641
X122.514 Y22.73
X121.786 Y22.782
X121.057 Y22.799
X119.628 Y22.714
X118.283 Y22.467
X117.022 Y22.068
X115.855 Y21.525
X114.79 Y20.85
X113.837 Y20.052
X113.004 Y19.138
X112.301 Y18.119
X111.738 Y17.003
X111.322 Y15.798
X111.066 Y14.512
X110.978 Y13.152
X111.063 Y11.769
X111.313 Y10.47
X111.719 Y9.263
X112.273 Y8.154
X112.968 Y7.148
X113.795 Y6.252
X114.75 Y5.472
X115.825 Y4.816
X117.014 Y4.29
X118.312 Y3.904
X119.711 Y3.666
X121.209 Y3.584
X121.928 Y3.605
X122.663 Y3.667
X123.406 Y3.771
X124.156 Y3.916
X124.911 Y4.101
X125.669 Y4.326
X126.427 Y4.591
X127.185 Y4.894
X127.939 Y5.237
X128.689 Y5.617
X129.432 Y6.035
X130.173 Y6.495
X130.183 Y6.501
X130.193 Y6.506
X130.202 Y6.511
X130.212 Y6.516
X130.222 Y6.521
X130.233 Y6.526
X130.243 Y6.53
X130.253 Y6.534
X130.264 Y6.538
X130.274 Y6.541
X130.285 Y6.544
X130.295 Y6.547
X130.306 Y6.55
X130.317 Y6.553
X130.328 Y6.555
X130.339 Y6.557
X130.35 Y6.558
X130.361 Y6.56
X130.372 Y6.561
X130.383 Y6.561
X130.394 Y6.562
X130.405 Y6.562
X130.416 Y6.562
X130.428 Y6.562
X130.439 Y6.561
X130.45 Y6.561
X130.461 Y6.559
X130.472 Y6.558
X130.483 Y6.556
X130.494 Y6.555
X130.505 Y6.552
X130.515 Y6.55
X130.526 Y6.547
X130.537 Y6.544
X130.548 Y6.541
X130.558 Y6.537
X130.569 Y6.534
X130.579 Y6.53
X130.589 Y6.525
X130.599 Y6.521
X130.609 Y6.516
X130.619 Y6.511
X130.629 Y6.506
X130.63 Y6.505
X130.64 Y6.499
X130.65 Y6.493
X130.659 Y6.487
X130.668 Y6.481
X130.677 Y6.475
X130.686 Y6.468
X130.695 Y6.461
X130.703 Y6.454
X130.712 Y6.447
X130.72 Y6.439
X130.728 Y6.432
X130.736 Y6.424
X130.743 Y6.416
X130.751 Y6.407
X130.758 Y6.399
X130.765 Y6.39
X130.772 Y6.381
X130.778 Y6.372
X130.785 Y6.363
X130.791 Y6.354
X130.797 Y6.345
X130.802 Y6.335
X130.808 Y6.325
X130.813 Y6.315
X130.818 Y6.305
X130.822 Y6.295
X130.827 Y6.285
X130.831 Y6.275
X130.835 Y6.264
X130.838 Y6.254
X130.842 Y6.243
X130.845 Y6.233
X130.848 Y6.222
X130.85 Y6.211
X130.853 Y6.2
X130.855 Y6.189
X130.856 Y6.178
X130.858 Y6.167
X130.859 Y6.156
X130.86 Y6.145
X130.861 Y6.134
X130.861 Y6.123
X130.861 Y6.112
Y1.972
X130.861 Y1.961
X130.861 Y1.95
X130.86 Y1.939
X130.859 Y1.927
X130.858 Y1.916
X130.856 Y1.905
X130.854 Y1.894
X130.852 Y1.883
X130.85 Y1.872
X130.847 Y1.861
X130.844 Y1.85
X130.841 Y1.839
X130.838 Y1.829
X130.834 Y1.818
X130.83 Y1.807
X130.826 Y1.797
X130.821 Y1.787
X130.816 Y1.776
X130.811 Y1.766
X130.806 Y1.756
X130.801 Y1.747
X130.795 Y1.737
X130.794 Y1.736
X130.788 Y1.727
X130.782 Y1.717
X130.775 Y1.708
X130.769 Y1.699
X130.762 Y1.69
X130.755 Y1.681
X130.747 Y1.673
X130.74 Y1.665
X130.732 Y1.656
X130.724 Y1.648
X130.716 Y1.641
X130.707 Y1.633
X130.699 Y1.626
X130.69 Y1.619
X130.681 Y1.612
X130.672 Y1.605
X130.663 Y1.599
X130.653 Y1.593
X130.644 Y1.587
X130.634 Y1.581
X130.624 Y1.576
X130.614 Y1.57
X129.961 Y1.24
X129.954 Y1.237
X129.948 Y1.234
X129.281 Y0.922
X129.274 Y0.919
X129.267 Y0.916
X128.583 Y0.624
X128.575 Y0.621
X128.567 Y0.618
X127.862 Y0.348
X127.854 Y0.345
X127.845 Y0.342
X127.115 Y0.096
X127.106 Y0.093
X127.097 Y0.091
X126.339 Y-0.128
X126.329 Y-0.13
X126.319 Y-0.133
X125.529 Y-0.324
X125.519 Y-0.326
X125.509 Y-0.328
X124.683 Y-0.489
X124.673 Y-0.491
X124.663 Y-0.492
X123.796 Y-0.621
X123.787 Y-0.622
X123.777 Y-0.624
X122.867 Y-0.718
X122.864 Y-0.718
X122.859 Y-0.719
X122.856 Y-0.719
X122.853 Y-0.719
X122.851 Y-0.719
X122.848 Y-0.719
X121.891 Y-0.778
X121.882 Y-0.778
X121.881 Y-0.778
X121.872 Y-0.778
X120.864 Y-0.798
X120.855 Y-0.798
X120.845 Y-0.798
X120.836 Y-0.798
X120.826 Y-0.797
X118.466 Y-0.644
X118.455 Y-0.643
X118.445 Y-0.642
X118.435 Y-0.641
X118.425 Y-0.64
X118.414 Y-0.638
X118.404 Y-0.636
X116.272 Y-0.199
X116.261 Y-0.197
X116.251 Y-0.194
X116.24 Y-0.191
X116.23 Y-0.188
X116.22 Y-0.185
X116.209 Y-0.181
X114.3 Y0.505
X114.29 Y0.508
X114.28 Y0.513
X114.27 Y0.517
X114.26 Y0.521
X114.25 Y0.526
X114.24 Y0.531
X112.55 Y1.435
X112.541 Y1.44
X112.532 Y1.445
X112.522 Y1.451
X112.513 Y1.457
X112.504 Y1.463
X112.496 Y1.469
X111.021 Y2.555
X111.012 Y2.562
X111.004 Y2.568
X110.996 Y2.575
X110.988 Y2.582
X110.98 Y2.589
X110.973 Y2.596
X109.708 Y3.831
X109.701 Y3.838
X109.694 Y3.845
X109.688 Y3.853
X109.681 Y3.86
X109.675 Y3.868
X109.669 Y3.876
X108.61 Y5.226
X108.605 Y5.233
X108.599 Y5.241
X108.594 Y5.249
X108.588 Y5.257
X108.583 Y5.265
X108.578 Y5.273
X107.722 Y6.705
X107.715 Y6.716
X107.709 Y6.728
X107.703 Y6.74
X107.697 Y6.753
X107.039 Y8.232
X107.034 Y8.245
X107.029 Y8.257
X107.024 Y8.269
X107.02 Y8.282
X106.555 Y9.776
X106.552 Y9.788
X106.548 Y9.801
X106.545 Y9.814
X106.543 Y9.827
X106.267 Y11.301
X106.265 Y11.314
X106.263 Y11.328
X106.261 Y11.341
X106.26 Y11.355
X106.169 Y12.776
X106.169 Y12.785
X106.168 Y12.795
X106.168 Y12.804
Y12.805
X106.168 Y12.814
X106.169 Y12.824
X106.169 Y12.833
X106.294 Y14.798
X106.294 Y14.807
X106.295 Y14.817
X106.296 Y14.827
X106.298 Y14.836
X106.299 Y14.846
X106.301 Y14.856
X106.665 Y16.717
X106.667 Y16.727
X106.67 Y16.736
X106.672 Y16.746
X106.675 Y16.756
X106.678 Y16.765
X106.681 Y16.775
G00 Z10
X139.102 Y15.267
G01 Z-1.085 F600
X142.935 F2000
X143.587 Y15.297
X144.181 Y15.383
X144.723 Y15.523
X145.212 Y15.714
X145.647 Y15.953
X146.028 Y16.239
X146.354 Y16.571
X146.626 Y16.949
X146.843 Y17.374
X147.003 Y17.85
X147.102 Y18.377
X147.136 Y18.959
X147.116 Y19.398
X147.052 Y19.836
X146.941 Y20.26
X146.782 Y20.664
X146.569 Y21.042
X146.3 Y21.389
X145.969 Y21.701
X145.569 Y21.974
X145.09 Y22.202
X144.523 Y22.376
X143.862 Y22.488
X143.088 Y22.529
X139.102
Y15.267
G00 Z10
Y10.961
G01 Z-1.085 F600
Y0 F2000
X139.101 Y-0.011
X139.101 Y-0.022
X139.1 Y-0.033
X139.099 Y-0.044
X139.098 Y-0.055
X139.097 Y-0.065
X139.095 Y-0.076
X139.093 Y-0.087
X139.091 Y-0.098
X139.088 Y-0.109
X139.085 Y-0.119
X139.082 Y-0.13
X139.079 Y-0.141
X139.075 Y-0.151
X139.071 Y-0.161
X139.067 Y-0.172
X139.063 Y-0.182
X139.058 Y-0.192
X139.054 Y-0.202
X139.048 Y-0.211
X139.043 Y-0.221
X139.038 Y-0.231
X139.032 Y-0.24
X139.026 Y-0.249
X139.02 Y-0.258
X139.013 Y-0.267
X139.006 Y-0.276
X139 Y-0.285
X138.992 Y-0.293
X138.985 Y-0.301
X138.978 Y-0.309
X138.97 Y-0.317
X138.969 Y-0.318
X138.961 Y-0.326
X138.953 Y-0.334
X138.945 Y-0.341
X138.936 Y-0.348
X138.928 Y-0.355
X138.919 Y-0.362
X138.91 Y-0.368
X138.901 Y-0.374
X138.892 Y-0.38
X138.882 Y-0.386
X138.873 Y-0.392
X138.863 Y-0.397
X138.853 Y-0.402
X138.843 Y-0.407
X138.833 Y-0.411
X138.823 Y-0.416
X138.813 Y-0.42
X138.802 Y-0.424
X138.792 Y-0.427
X138.781 Y-0.431
X138.771 Y-0.434
X138.76 Y-0.437
X138.75 Y-0.439
X138.739 Y-0.441
X138.728 Y-0.443
X138.717 Y-0.445
X138.706 Y-0.447
X138.695 Y-0.448
X138.684 Y-0.449
X138.673 Y-0.45
X138.662 Y-0.45
X138.651 Y-0.45
X134.86
X134.849 Y-0.45
X134.838 Y-0.45
X134.827 Y-0.449
X134.816 Y-0.448
X134.805 Y-0.447
X134.794 Y-0.445
X134.783 Y-0.443
X134.772 Y-0.441
X134.761 Y-0.439
X134.751 Y-0.437
X134.74 Y-0.434
X134.729 Y-0.431
X134.719 Y-0.427
X134.708 Y-0.424
X134.698 Y-0.42
X134.688 Y-0.416
X134.678 Y-0.411
X134.668 Y-0.407
X134.658 Y-0.402
X134.648 Y-0.397
X134.638 Y-0.392
X134.629 Y-0.386
X134.619 Y-0.38
X134.61 Y-0.374
X134.601 Y-0.368
X134.592 Y-0.362
X134.583 Y-0.355
X134.575 Y-0.348
X134.566 Y-0.341
X134.558 Y-0.334
X134.55 Y-0.326
X134.542 Y-0.318
X134.541 Y-0.317
X134.533 Y-0.309
X134.526 Y-0.301
X134.518 Y-0.293
X134.511 Y-0.285
X134.504 Y-0.276
X134.498 Y-0.267
X134.491 Y-0.258
X134.485 Y-0.249
X134.479 Y-0.24
X134.473 Y-0.231
X134.468 Y-0.221
X134.462 Y-0.211
X134.457 Y-0.202
X134.452 Y-0.192
X134.448 Y-0.182
X134.443 Y-0.172
X134.439 Y-0.161
X134.435 Y-0.151
X134.432 Y-0.141
X134.429 Y-0.13
X134.425 Y-0.119
X134.423 Y-0.109
X134.42 Y-0.098
X134.418 Y-0.087
X134.416 Y-0.076
X134.414 Y-0.065
X134.413 Y-0.055
X134.411 Y-0.044
X134.41 Y-0.033
X134.41 Y-0.022
X134.409 Y-0.011
X134.409 Y0
Y26.384
X134.409 Y26.395
X134.41 Y26.406
X134.41 Y26.417
X134.411 Y26.428
X134.413 Y26.439
X134.414 Y26.449
X134.416 Y26.46
X134.418 Y26.471
X134.42 Y26.482
X134.423 Y26.493
X134.425 Y26.503
X134.429 Y26.514
X134.432 Y26.525
X134.435 Y26.535
X134.439 Y26.545
X134.443 Y26.556
X134.448 Y26.566
X134.452 Y26.576
X134.457 Y26.586
X134.462 Y26.595
X134.468 Y26.605
X134.473 Y26.615
X134.479 Y26.624
X134.485 Y26.633
X134.491 Y26.642
X134.498 Y26.651
X134.504 Y26.66
X134.511 Y26.669
X134.518 Y26.677
X134.526 Y26.685
X134.533 Y26.694
X134.541 Y26.701
X134.542 Y26.702
X134.55 Y26.71
X134.558 Y26.718
X134.566 Y26.725
X134.575 Y26.732
X134.583 Y26.739
X134.592 Y26.746
X134.601 Y26.752
X134.61 Y26.758
X134.619 Y26.764
X134.629 Y26.77
X134.638 Y26.776
X134.648 Y26.781
X134.658 Y26.786
X134.668 Y26.791
X134.678 Y26.795
X134.688 Y26.8
X134.698 Y26.804
X134.708 Y26.808
X134.719 Y26.811
X134.729 Y26.815
X134.74 Y26.818
X134.751 Y26.821
X134.761 Y26.823
X134.772 Y26.825
X134.783 Y26.827
X134.794 Y26.829
X134.805 Y26.831
X134.816 Y26.832
X134.827 Y26.833
X134.838 Y26.834
X134.849 Y26.834
X134.86 Y26.834
X143.1
X143.111 Y26.834
X143.123 Y26.833
X144.499 Y26.764
X144.511 Y26.763
X144.523 Y26.762
X144.536 Y26.761
X144.548 Y26.759
X145.795 Y26.557
X145.809 Y26.554
X145.822 Y26.552
X145.822 Y26.551
X145.836 Y26.548
X145.849 Y26.545
X146.969 Y26.219
X146.979 Y26.216
X146.988 Y26.213
X146.998 Y26.21
X147.007 Y26.206
X147.017 Y26.202
X147.026 Y26.198
X148.021 Y25.758
X148.03 Y25.754
X148.04 Y25.749
X148.049 Y25.744
X148.05 Y25.744
X148.059 Y25.739
X148.068 Y25.734
X148.077 Y25.728
X148.949 Y25.183
X148.958 Y25.177
X148.967 Y25.17
X148.976 Y25.164
X148.985 Y25.157
X148.994 Y25.15
X149.003 Y25.143
X149.752 Y24.501
X149.76 Y24.494
X149.769 Y24.486
X149.777 Y24.478
X149.785 Y24.47
X149.792 Y24.462
X149.8 Y24.454
X150.429 Y23.725
X150.436 Y23.716
X150.443 Y23.708
X150.45 Y23.699
X150.457 Y23.69
X150.463 Y23.681
X150.469 Y23.672
X150.98 Y22.865
X150.986 Y22.856
X150.991 Y22.847
X150.996 Y22.837
X151.001 Y22.828
X151.006 Y22.818
X151.01 Y22.809
X151.405 Y21.934
X151.409 Y21.924
X151.412 Y21.915
X151.416 Y21.906
X151.419 Y21.896
X151.422 Y21.887
X151.425 Y21.877
X151.705 Y20.942
X151.708 Y20.934
X151.71 Y20.925
X151.712 Y20.916
X151.714 Y20.907
X151.716 Y20.898
X151.718 Y20.888
X151.884 Y19.903
X151.886 Y19.89
X151.888 Y19.878
X151.889 Y19.865
X151.89 Y19.852
X151.945 Y18.825
X151.945 Y18.813
X151.945 Y18.8
X151.945 Y18.788
X151.945 Y18.775
X151.886 Y17.76
X151.885 Y17.746
X151.884 Y17.733
X151.882 Y17.719
X151.88 Y17.705
X151.704 Y16.736
X151.702 Y16.726
X151.7 Y16.716
X151.697 Y16.707
X151.695 Y16.697
X151.692 Y16.687
X151.689 Y16.678
X151.393 Y15.762
X151.389 Y15.752
X151.386 Y15.741
X151.382 Y15.732
X151.382 Y15.731
X151.378 Y15.722
X151.373 Y15.712
X151.369 Y15.702
X150.951 Y14.848
X150.946 Y14.838
X150.941 Y14.828
X150.935 Y14.818
X150.929 Y14.808
X150.923 Y14.799
X150.917 Y14.79
X150.376 Y14.005
X150.369 Y13.996
X150.362 Y13.987
X150.355 Y13.978
X150.355 Y13.977
X150.348 Y13.969
X150.34 Y13.96
X150.333 Y13.952
X149.666 Y13.245
X149.658 Y13.237
X149.65 Y13.229
X149.642 Y13.221
X149.641 Y13.221
X149.633 Y13.214
X149.624 Y13.206
X149.615 Y13.199
X148.821 Y12.579
X148.813 Y12.572
X148.804 Y12.566
X148.795 Y12.56
X148.795 Y12.559
X148.786 Y12.554
X148.776 Y12.548
X148.767 Y12.542
X147.843 Y12.016
X147.835 Y12.011
X147.826 Y12.007
X147.816 Y12.002
X147.807 Y11.998
X147.798 Y11.994
X147.788 Y11.99
X146.734 Y11.566
X146.725 Y11.563
X146.716 Y11.56
X146.708 Y11.557
X146.707 Y11.557
X146.699 Y11.554
X146.69 Y11.551
X146.681 Y11.549
X145.493 Y11.236
X145.481 Y11.233
X145.469 Y11.23
X145.456 Y11.228
X145.444 Y11.226
X144.121 Y11.032
X144.11 Y11.031
X144.099 Y11.03
X144.088 Y11.029
X144.077 Y11.028
X142.617 Y10.962
X142.607 Y10.962
X142.597 Y10.961
X139.102
G00 Z10
T0 M06 M02
